X:1
T:Title
%%score 1 { 2 | ( 3 4 ) }
L:1/8
M:6/8
K:Ab
V:1 treble nm="Voice"
V:2 treble nm="Piano"
V:3 bass 
V:4 bass 
V:1
"^Allegretto" z | z6 | z6 | z6 | z2 z z2!p! c | c2 A A2 B | c2 A F2 c | c2 G G2 A | B2 G G2 c | %9
 c2 A A2 B | c2 A F2 c | c2 G G2 A | B2 G G2 G |!<(! G2 A B2 c!<)! |!>(! d3 G2!>)! G | G2 A B2 c | %16
 d3 G2!mf! G |!<(! G2 A B2 c!<)! | d3 G2!f! d | (c3 dcB) | A2 G F2 z | z6 | z6 | z6 | z6 | z6 | %26
 z5 |] %27
V:2
!p! c | [Ac]2 [FA] [FA]2 [GB] | [Ac]2 [FA] [CF]2 [Ac] | [GB]2 [=EG] [EG]2 [FA] | %4
 [GB]2 [=EG] [CE]2!p! c | [Ac]2 [FA] [FA]2 [GB] | [Ac]2 [FA] [CF]2 [Ac] | [GB]2 [=EG] [EG]2 [FA] | %8
 [GB]2 [=EG] [CE]2 c | [Ac]2 [FA] [FA]2 [GB] | [Ac]2 [FA] [CF]2 [Ac] | [GB]2 [=EG] [EG]2 [FA] | %12
 [GB]2 [=EG] [EG]2 [EG] |!<(! [=EG]2 [FA] [GB]2 [Ac]!<)! |!>(! [Bd]3 [=EG]2!>)! [EG] | %15
 [=EG]2 [FA] [GB]2 [Ac] | [Bd]3 [=EG]2!mf! [EG] |!<(! [=EG]2 [FA] [GB]2 [Ac]!<)! | %18
 [Bd]3 [=EG]2!f! [Bd] | (c3 dcB) | A2 G F2 z |!f! (c3 dcB) | A2 G F2 z |[K:bass]!ff! (C3 DCB,) | %24
 A,2 G, F,2 z |!mf! (C,3 D,C,=B,,) | (C,3 F,2) |] %27
V:3
 z | [F,,F,][C,A,][C,A,] [F,,F,][C,A,][C,A,] | [F,,F,][C,A,][C,A,] [F,,F,][C,A,][C,A,] | %3
 [C,,C,][C,G,][C,G,] [C,,C,][C,G,][C,G,] | [C,,C,][C,G,][C,G,] [C,,C,][C,G,][C,G,] | %5
 [F,,F,][C,A,][C,A,] [F,,F,][C,A,][C,A,] | [F,,F,][C,A,][C,A,] [F,,F,][C,A,][C,A,] | %7
 [C,,C,][C,G,][C,G,] [C,,C,][C,G,][C,G,] | [C,,C,][C,G,][C,G,] [C,,C,][C,G,][C,G,] | %9
 [F,,F,][C,A,][C,A,] [F,,F,][C,A,][C,A,] | [F,,F,][C,A,][C,A,] [F,,F,][C,A,][C,A,] | %11
 [C,,C,][C,G,][C,G,] [C,,C,][C,G,][C,G,] | [C,,C,][C,G,][C,G,] [C,,C,][C,G,][C,G,] | %13
 [C,,C,][C,G,][C,G,] [C,,C,][C,G,][C,G,] | [C,,C,][C,G,][C,G,] [C,,C,][C,G,][C,G,] | %15
 [C,,C,][C,G,][C,G,] [C,,C,][C,G,][C,G,] | [C,,C,][C,G,][C,G,] [C,,C,][C,G,][C,G,] | %17
 [C,,C,][C,G,][C,G,] [C,,C,][C,G,][C,G,] | [C,,C,][C,G,][C,G,] [C,,C,][C,G,][C,G,] | (([C,,C,]6 | %20
 (([C,,C,]3))) [F,,,F,,]2) z | (([C,,C,]6 | (([C,,C,]3))) [F,,,F,,]2) z | (([C,,C,]6 | %24
 (([C,,C,]3))) [F,,,F,,]2) z | (([C,,C,]6 | ([C,,C,]3)) [F,,,F,,]2) |] %27
V:4
 x | x6 | x6 | x6 | x6 | x6 | x6 | x6 | x6 | x6 | x6 | x6 | x6 | x6 | x6 | x6 | x6 | x6 | x6 | %19
 ([=E,G,B,]6 | [=E,G,B,]3) [F,A,C]2 x | ([=E,G,B,]6 | [=E,G,B,]3) [F,A,C]2 x | ([=E,G,B,]6 | %24
 [=E,G,B,]3) [F,A,C]2 x | ([=E,G,B,]6 | [=E,G,B,]3) [F,A,C]2 |] %27

